icons/banana.svg

<svg xmlns="http://www.w3.org/2000/svg" width="24" height="24" viewBox="0 0 24 24" fill="none" stroke="currentColor" stroke-width="2" stroke-linecap="round" stroke-linejoin="round" class="hicon hicon-banana"><g clip-path="url(#clip0)"><path d="M19.8927 17.6218C17.6922 21.4333 12.8185 22.7392 9.00702 20.5387C8.78128 20.4083 8.61764 20.2991 8.50073 20.2115C8.50542 20.2087 8.51017 20.2059 8.51501 20.203C8.77472 20.0478 9.13026 19.8794 9.58928 19.6751C9.72253 19.6158 9.86313 19.5542 10.0097 19.4899C10.8328 19.1289 11.8439 18.6855 12.7947 18.1165C13.9209 17.4424 15.0606 16.5381 15.7993 15.2585C16.5381 13.9789 16.7514 12.5398 16.7721 11.2274C16.7895 10.1195 16.668 9.02218 16.569 8.12883C16.5514 7.96977 16.5345 7.81717 16.5192 7.67213C16.4666 7.17248 16.4347 6.78036 16.4392 6.47787C16.4393 6.47223 16.4394 6.46668 16.4395 6.46121C16.5738 6.51867 16.7502 6.60578 16.9759 6.73611C20.7874 8.93666 22.0933 13.8104 19.8927 17.6218Z" stroke="currentColor" stroke-width="2"></path><path d="M13.3262 2L14.7547 4.06969" stroke="currentColor" stroke-width="2" stroke-linecap="round" stroke-linejoin="round"></path></g><defs><clippath id="clip0"><rect width="24" height="24" fill="white"></rect></clippath></defs></svg>

<svg xmlns="http://www.w3.org/2000/svg" width="24" height="24" viewBox="0 0 24 24" fill="none" stroke="currentColor" stroke-width="2" stroke-linecap="round" stroke-linejoin="round" class="hicon hicon-banana"><g clip-path="url(#clip0)"><path stroke="#333333" stroke-width="2" d="M19.893 17.622a7.969 7.969 0 01-10.886 2.917c-.226-.13-.39-.24-.506-.328l.014-.008c.26-.155.615-.324 1.074-.528l.42-.185c.824-.361 1.835-.804 2.786-1.373 1.126-.675 2.266-1.579 3.004-2.859.74-1.28.952-2.718.973-4.03.018-1.108-.104-2.206-.203-3.1l-.05-.456a10.74 10.74 0 01-.08-1.21c.135.057.311.144.537.274a7.969 7.969 0 012.917 10.886z"></path><path stroke="#333333" stroke-linecap="round" stroke-linejoin="round" stroke-width="2" d="M13.326 2l1.429 2.07"></path></g><defs><clippath id="clip0"><path fill="white" d="M0 0h24v24H0z"></path></clippath></defs></svg>
